dist/img/close-menu.svg

<svg width="23" height="23" viewBox="0 0 23 23" fill="none" xmlns="http://www.w3.org/2000/svg">

    <path d="M9.39285 11.5185L0.437099 2.56248C-0.145725 1.97993 -0.145725 1.03802 0.437099 0.455469C1.01965 -0.127083 1.96156 -0.127083 2.54411 0.455469L11.5001 9.41149L20.4559 0.455469C21.0387 -0.127083 21.9803 -0.127083 22.5629 0.455469C23.1457 1.03802 23.1457 1.97993 22.5629 2.56248L13.6071 11.5185L22.5629 20.4745C23.1457 21.0571 23.1457 21.999 22.5629 22.5815C22.2726 22.8721 21.8908 23.0181 21.5094 23.0181C21.1279 23.0181 20.7465 22.8721 20.4559 22.5815L11.5001 13.6255L2.54411 22.5815C2.25352 22.8721 1.87206 23.0181 1.4906 23.0181C1.10915 23.0181 0.727694 22.8721 0.437099 22.5815C-0.145725 21.999 -0.145725 21.0571 0.437099 20.4745L9.39285 11.5185Z"
          />


</svg>

<svg width="23" height="23" fill="none" xmlns="http://www.w3.org/2000/svg"><path d="M9.393 11.518L.437 2.563a1.488 1.488 0 010-2.107 1.489 1.489 0 012.107 0L11.5 9.411 20.456.455a1.489 1.489 0 012.107 0 1.488 1.488 0 010 2.107l-8.956 8.956 8.956 8.956a1.488 1.488 0 01-1.054 2.544c-.381 0-.762-.146-1.053-.437L11.5 13.626 2.544 22.58a1.486 1.486 0 01-2.107 0 1.488 1.488 0 010-2.107l8.956-8.956z"/></svg>
